X:1
T:PHASE 3: FANFARE 
T:ENUSH J BIJU
T:MICHAEL GIACCHINO
%%score { ( 1 3 ) | 2 }
L:1/8
Q:1/4=82
M:4/4
K:C
V:1 treble nm="Piano" snm="Pno."
V:3 treble 
V:2 bass 
V:1
 (3.[GBd]GG (3.[GBd].[GB_e].[GBe] (3.[GBd]GG (7:8:5G/G/-G/8G3/8G/4 | %1
 (3.[GBd]GG (3.[GBd].[GB_e].[GBe] (3.[GBd]GG (3:2:2G/d/4(3:2:2g/4d/G | %2
 [B,B]2 (7:8:6[B,B]/4[B,B]3/8[Cc]/8-[Cc]3/8[A,A]/8-[A,A]/ [B,B]2 [Gg]2 | %3
 (3[Dd][Ee][Ff] z2 z2 (3[FAd]/[FAd]/[Ace]/(3[Ace]/[cfa]/[cfa]/ | %4
 [B,B]2 (3[B,B][Cc][A,A] [B,B]2 [Gg]2 | %5
 (3[Gg][Aa][_B_b] z2 (3G,/4_B,/4_E/4(3G/4B/4_e/4(3g/4b/4g/4e/4<.B/4(3.G[B,D][G,B,] | %6
[M:12/8] [B,DG][G,B,D].[B,DG]/.[G,B,D]/ [B,DG][G,B,D][B,DG]/[G,B,D]/ [CF][K:bass][F,A,C][D,D]/[E,E]/[K:treble] .[A,DF]3 | %7
 [B,DG][G,B,D].[B,DG]/.[G,B,D]/ [B,DG][G,B,D][B,DG]/[G,B,D]/ [_B_b][Aa][Gg]/[Bb]/ [cfac']2 [fac'f'] | %8
 .[Bdg]3 .[B_eg]/<.[GBeg]/ .[Bdg]2 z2 .[Bdg] z z z/4 .[GBc]3/4 |[M:8/8] [GBdg]8 |] %10
V:2
 [G,,,G,,] (3z/ [G,,,G,,]/[G,,,G,,]/ [G,,,G,,] (3z/ [G,,,G,,]/[G,,,G,,]/ [G,,,G,,] (3z/ [G,,,G,,]/[G,,,G,,]/ [G,,,G,,] (3z/ [G,,,G,,]/[G,,,G,,]/ | %1
 [G,,,G,,] (3z/ [G,,,G,,]/[G,,,G,,]/ [G,,,G,,] (3z/ [G,,,G,,]/[G,,,G,,]/ [G,,,G,,] (3z/ [G,,,G,,]/[G,,,G,,]/ [G,,,G,,] (3z/ [G,,,G,,]/[G,,,G,,]/ | %2
 [G,,,G,,] (3z/ [G,,,G,,]/[G,,,G,,]/ [G,,,G,,] (3z/ [G,,,G,,]/[G,,,G,,]/ [G,,,G,,] (3z/ [G,,,G,,]/[G,,,G,,]/ [G,,,G,,] (3z/ [G,,,G,,]/[G,,,G,,]/ | %3
 [D,,,D,,] (3z/ [D,,,D,,]/[D,,,D,,]/ [D,,,D,,](3.[D,,,D,,]/[D,,,D,,]/[D,,,D,,]/ [D,,,D,,] (3z/ [D,,,D,,]/[D,,,D,,]/ [F,,,F,,] (3z/ [E,,,E,,]/[F,,,F,,]/ | %4
 [G,,,G,,] (3z/ [G,,,G,,]/[G,,,G,,]/ [G,,,G,,] (3z/ [G,,,G,,]/[G,,,G,,]/ [G,,,G,,] (3z/ [G,,,G,,]/[G,,,G,,]/ [G,,,G,,] (3z/ [G,,,G,,]/[G,,,G,,]/ | %5
 [_E,,,_E,,] (3z/ [E,,,E,,]/[E,,,E,,]/ [E,,,E,,] (3z/ [E,,,E,,]/[E,,,E,,]/ [E,,,E,,] (3z/ [E,,,E,,]/[E,,,E,,]/ [E,,,E,,] (3z/ [E,,,E,,]/[E,,,E,,]/ | %6
[M:12/8] .[G,,,G,,][G,,,G,,](3G,,,/G,,/G,,,/ .[G,,,G,,][G,,,G,,].[G,,,G,,]/.[G,,,G,,]/ .[F,,A,,C,F,][F,,,F,,](3F,,,/F,,/F,,,/ .[F,,,F,,][F,,,F,,].[F,,,F,,]/.[F,,,F,,]/ | %7
 .[G,,,G,,][G,,,G,,](3G,,,/G,,/G,,,/ .[G,,,G,,][G,,,G,,].[G,,,G,,]/.[G,,,G,,]/ .[_E,,,_E,,][E,,,E,,](3E,,,/E,,/E,,,/ .[F,,,F,,][F,,,F,,].[F,,,F,,]/.[F,,,F,,]/ | %8
 [G,,,G,,] (3z/ [G,,,G,,]/[G,,,G,,]/[D,,,D,,] (3[D,,,D,,]/[D,,,D,,]/[D,,,D,,]/[G,,,G,,] (3z/ [G,,,G,,]/[G,,,G,,]/ [G,,,G,,] (3z/ [G,,,G,,]/[G,,,G,,]/[G,,,G,,] (3z/ [G,,,G,,]/[G,,,G,,]/.[F,,,F,,]/ (3:2:2z/4 [_E,,,_E,,]/ (3:2:2z/ [C,,,C,,]/4 z/ | %9
[M:8/8] [G,,,G,,]8 |] %10
V:3
 x8 | x8 | x8 | x8 | x8 | x8 |[M:12/8] x7[K:bass] x2[K:treble] x3 | x12 | %8
 (3:2:2GG/-G/G/(3[G-Bdg]/G/[G-B_eg]/ G(3:2:2GG/-G/G/ G/GG/(3:2:2GG/- G/G/(3[G-Bdf]/G/[GBe]/-[GBe] | %9
[M:8/8] x8 |] %10

